lib/brands/icons/testcafe.svg

<svg xmlns="http://www.w3.org/2000/svg" fill="none" aria-hidden="true" viewBox="0 0 48 48"><g id="testcafe-Icon"><g id="Group"><path id="Vector" fill="#172535" d="M28.8284 28.2699L27.4488 29.693H32.9663L38.4838 34.6738H9.51748L15.035 29.693H19.1723L17.7934 28.2699H13.6554L4 36.809H44L34.3458 28.2699H28.8284V28.2699Z"/><path id="Vector_2" fill="#1274CC" d="M41.0982 14.6411L37.6673 11.191L23.2571 25.6844L17.7678 20.1631L14.3369 23.6138L23.2571 32.5852L41.0982 14.6411Z"/></g></g></svg>

<svg xmlns="http://www.w3.org/2000/svg" fill="none" aria-hidden="true" viewBox="0 0 48 48"><path fill="#172535" d="m28.828 28.27-1.38 1.423h5.518l5.518 4.98H9.517l5.518-4.98h4.137l-1.379-1.423h-4.138L4 36.809h40l-9.654-8.54h-5.518Z"/><path fill="#1274CC" d="m41.098 14.641-3.43-3.45-14.41 14.493-5.49-5.52-3.431 3.45 8.92 8.971 17.841-17.944Z"/></svg>
